X:1
T:Moment Musical No. 5
T:Moment Musical No. 5 in D♭ Major
T:from Moments Musicaux, Op. 16
T:Sergei Rachmaninoff (1873-1943) 
C:Sergei Rachmaninoff (1873-1943)
%%score { ( 1 3 4 ) | 2 }
L:1/8
Q:1/4=54
M:4/4
K:Db
V:1 treble nm="Grand Piano" snm="Pno."
V:3 treble 
V:4 treble 
V:2 bass 
V:1
"^Adagio sostenuto" z8 | z2!mf!!<(! !tenuto!A,2 !tenuto![B,D]3 !tenuto![CF]!<)! | %2
!mp! !tenuto![A,DF]8 | z2!<(! !tenuto![EG]2!<)!!mf!!>(! ([GB]2-!>)!!mp! (3:2:2[GB]2 [FA]) | %4
 [DFA]8 | z2 !tenuto![FA]4 (3:2:2([EG]2 [DF]) | !tenuto![DF]2 (!tenuto![_CE]4 !tenuto![DF]2) | %7
 (!tenuto![B,D]!tenuto![CE] !tenuto![DF]6) |"_dim." z2 (D2 E2- (3:2:2E2 D) |!p! (D2 C4 B,2- | %10
"_cresc." B,2 A,2 [B,D]3 [CG] |!mf! [DF]6) ([CE]2 | %12
!<(! [DF]2 [EG]2 [FA]!<)!!f!!>(![GB]- (3:2:2[GB]2 [FA])!>)! |!mf! !tenuto![FA]6!mf! ([DF][EG] | %14
 [FA]2 [GB]2- [GB][FA] (3:2:2[EG]2 [DF]) | ([DF]2 [_CE]2-)"_dim." [CE]([DF][CE][DF] | %16
!p! [B,D][=CE] [DF]4)!mf! (3:2:2!tenuto![CE]2 !tenuto![B,D] | %17
 !tenuto!D2 !tenuto!E4[Q:1/4=48]"_rit."!>(! (3:2:2(F2 E)!>)! |!p![Q:1/4=54] D8 | %19
[Q:1/4=54]"^a tempo"!mf! z (D [GB][FA]) ([FA]2 (3:2:2[EG]2 [DF]) | %20
 (3([DF][CE][DF]-) [DF]2 z (D (3[FA][GB][FA]) | %21
 !tenuto![FA]2 (3([EG][DF][CE] (3:2:2[DF]2 [CE] [DF]2) | %22
"_cresc." z !tenuto!A, (3:2:2!tenuto![B,D]2 !tenuto![CF] !tenuto![DF]2 (3:2:2!tenuto![CFA]2 !tenuto![_CFd] | %23
[M:2/4] !tenuto![_CFd]4 |[M:4/4]!f! z (G [_ce][Bd]) ([Bd]2!>(! (3:2:2[Ac]2 [GB]) | %25
 (3([GB][FA][GB]-)!>)!!mf! [GB]2!f! z (G (3[Bd][_ce][Bd]) | %26
 (3([Bd][A_c][Bd]!>(! (3:2:2[Ac]2 [GB]) (3([GB][FA][GB]-)!>)!!mf! [GB]2 | %27
"_cresc." z !tenuto!G !tenuto!B!tenuto!d !tenuto!d2[Q:1/4=48]"_rit." (3:2:2(f2 b) | %28
!ff![Q:1/4=54] !arpeggio![G,B,_FBb]8 | %29
!mf! z (__B (3[g__b][a_c'][gb])!<(! (3:2:2!tenuto![gb]2 !tenuto![_c__e]- (3:2:2[ce]2 !tenuto![Bd]!<)! | %30
!f! (3(!>![__B=c][FA][EG]) [EG]4 (3:2:2([FA]2 [GB]) | %31
!f! ([G__B][__B,D]!>(! (3:2:2[A_c]2 [GB] (3:2:2[GB]2) ([__EG]- (3[EG][_CE][B,D])!>)! | %32
[K:bass]!p!!<(! (3(!tenuto![__B,=C][F,A,][E,G,]) ([E,G,]2- [E,G,]!tenuto![F,A,] [G,B,]2-!<)! | %33
 [G,B,]2)!mf! !tenuto![F,A,]2!<(! !tenuto!D3[K:treble] !tenuto!_F!<)! | %34
!f! !tenuto!=E4-!<(! E!tenuto!^F!<)!!ff!!>(! (3:2:2([^C=A]2 [=B,G])!>)! | %35
!mf!!<(! [=E^G]4!<)!!f!!>(! [^DG]4!>)! |!p! [=E^G]4 [_G_A]4 | %37
!pp! !arpeggio![F,A,DFA]2!mf!!mf! !>!!tenuto!A,2 !>!!tenuto![B,D]3 !>!!tenuto![CF] | %38
 (3z z!pp! (d (3[fa][db][fa]) [fa]2 (3:2:2([Bg]2 [Af]) | %39
 [Af] z!mf! (!>!!tenuto![EG]2 !>!!tenuto![FA]!>!!tenuto![GB]- (3:2:2[GB]2 !>!!tenuto![FA]) | %40
 (3z z!pp! (d (3[fa][db][fa]) [fa]2 (3:2:2([eg]2 [df]) | %41
 (3[df] z!mf! (!>!!tenuto![FA] !>!!tenuto![GB]2- [GB]!>!!tenuto![FA] (3:2:2!>!!tenuto![EG]2 !>!!tenuto![DF]) | %42
!mf! (3z z!pp! (A (3[E_c][Fd][Ec]) [Ec]2 (3:2:2([DB]2 [_CA]) |!<(! B8!<)! | %44
 (3z z (F (3[EG][FA][EG]) [EG]2"_dim." (3!tenuto![A,F]!tenuto![G,E]!tenuto![F,D] |!p! D8 | %46
!pp! (!tenuto![DF]2 !tenuto![CFA]2 !tenuto![_CEGB]2 (3!tenuto![=CFA]!tenuto![EG]!tenuto![DF]) | %47
 (3z z (d (3[fa][db][fa]) [fa]4 | [A,D]2 [DF]2 [CG]2 (3[CG]ED | %49
 (3z z (D (3[FA][DB][FA]) [FA]4[K:bass] |!pp! [D,A,]8- |!>(! [D,A,]8-!>)! |!ppp! [D,A,] z z2 z4 |] %53
V:2
!pp!!ped! (3(F,A,,D,, (3A,,D,,A,,) (3(F,A,,D,, (3A,,D,,A,,) | %1
 (3(F,A,,D,, (3A,,D,,A,,)!ped-up!!ped! (3(G,A,,D,, (3A,,D,,A,,)!ped-up! | %2
!ped! (3(F,A,,D,, (3A,,D,,A,,) (3(F,A,,D,, (3A,,D,,A,,)!ped-up! | %3
!ped! (3(F,A,,D,, (3A,,D,,A,,)!ped-up!!ped! (3(E,A,,D,, (3A,,D,,A,,)!ped-up! | %4
!ped! (3(F,A,,D,, (3A,,D,,A,,) (3(F,A,,D,, (3A,,D,,A,,)!ped-up! | %5
!ped! (3(F,A,,D,, (3A,,D,,A,,)!ped-up!!ped! (3(A,A,,D,, (3A,,D,,A,,)!ped-up! | %6
!ped! (3(F,A,,D,,!ped-up!!ped! (3A,,D,,A,,) (3(F,A,,D,,!ped-up!!ped! (3A,,D,,A,,)!ped-up! | %7
!ped! (3(F,B,,D,, (3B,,D,,B,,)!ped-up!!ped! (3(F,B,,D,, (3B,,D,,B,,)!ped-up! | %8
!ped! (3(G,B,,D,, (3B,,D,,B,,)!ped-up!!ped! (3(G,__B,,D,,!ped-up!!ped! (3A,,D,,A,,)!ped-up! | %9
!ped! (3(F,A,,D,,!ped-up!!ped! (3A,,D,,A,,)!ped-up!!ped! (3(=E,A,,D,,!ped-up!!ped! (3A,,D,,A,,)!ped-up! | %10
!ped! (3(F,A,,D,, (3A,,D,,A,,)!ped-up!!ped! (3(G,A,,D,, (3A,,D,,A,,)!ped-up! | %11
!ped! (3(F,A,,D,, (3A,,D,,A,,)!ped-up!!ped! (3(F,A,,D,, (3A,,D,,A,,)!ped-up! | %12
!ped! (3(F,A,,D,, (3A,,D,,A,,)!ped-up!!ped! (3(G,A,,D,, (3A,,D,,A,,)!ped-up! | %13
!ped! (3(F,A,,D,, (3A,,D,,A,,)!ped-up!!ped! (3(F,A,,D,, (3A,,D,,A,,)!ped-up! | %14
!ped! (3(F,A,,D,, (3A,,D,,A,,)!ped-up!!ped! (3(A,A,,D,, (3A,,D,,A,,)!ped-up! | %15
!ped! (3(F,A,,D,,!ped-up!!ped! (3A,,D,,A,,)!ped-up!!ped! (3(F,A,,D,, (3=A,,D,,A,,)!ped-up! | %16
!ped! (3(F,B,,D,, (3B,,D,,B,,)!ped-up!!ped! (3(F,B,,D,, (3B,,D,,B,,)!ped-up! | %17
!ped! (3(G,B,,D,,!ped-up!!ped! (3__B,,D,,B,,)!ped-up!!ped! (3(G,A,,D,, (3A,,D,,A,,)!ped-up! | %18
!ped! (3(F,A,,D,, (3A,,D,,A,,) (3(F,A,,D,, (3A,,D,,A,,)!ped-up! | %19
!ped! (3(F,A,,D,, (3A,,D,,A,,)!ped-up!!ped! (3(F,A,,D,, (3A,,D,,A,,)!ped-up! | %20
!ped! (3(F,=A,,D,, (3A,,D,,A,,)!ped-up!!ped! (3(F,_A,,D,, (3A,,D,,A,,)!ped-up! | %21
!ped! (3(F,A,,D,, (3A,,D,,A,,)!ped-up!!ped! (3(F,=A,,D,, (3A,,D,,A,,)!ped-up! | %22
!ped! (3(F,_A,,D,, (3A,,D,,A,,)!ped-up!!ped! (3(F,A,,D,, (3A,,D,,A,,)!ped-up! | %23
[M:2/4]!ped! (3(F,A,,D,, (3=A,,D,,A,,)!ped-up! | %24
[M:4/4]!ped! (3(G,B,,D,, (3B,,D,,B,,)!ped-up!!ped! (3(G,B,,D,, (3B,,D,,B,,)!ped-up! | %25
!ped! (3(=D,B,,_D,, (3B,,D,,B,,)!ped-up!!ped! (3(_D,B,,D,, (3B,,D,,B,,)!ped-up! | %26
!ped! (3(G,B,,D,, (3B,,D,,B,,)!ped-up!!ped! (3(=D,B,,_D,, (3B,,D,,B,,)!ped-up! | %27
!ped! (3(_D,B,,D,, (3B,,D,,B,,)!ped-up!!ped! (3(F,B,,D,, (3B,,D,,B,,)!ped-up! | %28
!ped! (3(_F,B,,D,, (3B,,D,,B,,)!>(! (3(F,B,,D,, (3B,,D,,B,,)!ped-up!!>)! | %29
!ped! (3(G,__B,,D,, (3B,,D,,B,,)!ped-up!!ped! (3(G,B,,D,, (3B,,D,,B,,)!ped-up! | %30
!>(!!ped! (3(G,A,,D,, (3A,,D,,A,,)!>)!!ped-up!!mf!!<(!!ped! (3(G,A,,D,, (3A,,D,,A,,)!<)!!ped-up! | %31
!ped! (3(G,__B,,D,, (3B,,D,,B,,)!ped-up!!ped! (3(G,B,,D,, (3B,,D,,B,,)!ped-up! | %32
!ped! (3(E,A,,D,, (3A,,D,,A,,)!ped-up!!ped! (3(E,A,,D,, (3A,,D,,A,,)!ped-up! | %33
!ped! (3(D,A,,D,, (3A,,D,,A,,)!ped-up!!ped! (3(_F,A,,D,, (3A,,D,,A,,)!ped-up! | %34
!ped! (3(!arpeggio![=E,,,=E,,]=B,,E,, (3B,,E,,B,,) (3(^G,B,,E,,)!ped-up!!ped! (3(=A,^C,E,,)!ped-up! | %35
!ped! (3(^G,=B,,=E,, (3B,,E,,B,,)!ped-up!!ped! (3(=A,B,,E,, (3B,,E,,B,,)!ped-up! | %36
!ped! (3(^G,=B,,=E,, (3B,,E,,B,,)!ped-up!!ped! (3(_G,_A,,_E,, (3A,,E,,A,,)!ped-up! | %37
!ped! (3([D,,,D,,]A,,D,, (3A,,D,,A,,)!ped-up!!ped! (3(G,A,,D,, (3A,,D,,A,,)!ped-up! | %38
!ped! (3(F,A,,D,, (3A,,D,,A,,) (3(F,A,,D,, (3A,,D,,A,,)!ped-up! | %39
!ped! (3(F,A,,D,, (3A,,D,,A,,)!ped-up!!ped! (3(G,A,,D,, (3A,,D,,A,,)!ped-up! | %40
!ped! (3(F,A,,D,, (3A,,D,,A,,) (3(F,A,,D,, (3A,,D,,A,,)!ped-up! | %41
!ped! (3(F,A,,D,, (3A,,D,,A,,) (3(A,A,,D,, (3A,,D,,A,,)!ped-up! | %42
!ped! (3(F,A,,D,, (3A,,D,,A,,)!ped-up!!ped! (3(F,A,,D,, (3A,,D,,A,,)!ped-up! | %43
!ped! (3(F,B,,D,, (3B,,D,,B,,)!ped-up!!ped! (3(F,B,,D,, (3B,,D,,B,,)!ped-up! | %44
!ped! (3(G,B,,D,, (3B,,D,,B,,)!ped-up!!ped! (3(G,A,,D,, (3A,,D,,A,,)!ped-up! | %45
!ped! (3(F,A,,D,, (3A,,D,,A,,) (3(F,A,,D,, (3A,,D,,A,,)!ped-up! | %46
!ped! (3(F,A,,D,,!ped-up!!ped! (3A,,D,,A,,)!ped-up!!ped! (3(G,A,,D,,!ped-up!!ped! (3A,,D,,A,,)!ped-up! | %47
!ped! (3(F,A,,D,, (3A,,D,,A,,)!ped-up!!ped! (3(F,A,,D,, (3A,,D,,A,,)!ped-up! | %48
!ped! (3(F,A,,D,, (3A,,D,,A,,)!ped-up!!ped! (3(G,A,,D,, (3A,,D,,A,,)!ped-up! | %49
!ped! (3(F,A,,D,, (3A,,D,,A,,)!ped-up!!ped! (3(F,A,,D,, (3A,,D,,A,,)!ped-up! | %50
!ped! (3(F,A,,D,, (3A,,D,,A,,)!ped-up!!ped! (3(_F,A,,D,, (3A,,D,,A,,)!ped-up! | %51
!ped! (3(=F,A,,D,, (3A,,D,,A,,) (3(F,A,,D,, (3A,,D,,A,,) | F,!ped-up! z z2 z4 |] %53
V:3
 x8 | x2 A,2- A,4 | x8 | z4 C4 | x8 | x8 | x8 | x8 | x2 B,2 _C2 =C2 | D2 C4 B,2- | B,2 A,2- A,4 | %11
 A,8 | A,4 C4 | D8 | D8 | x8 | x8 | B,2 _C2 =C4 | x8 | x D- D2- D4 | z4 x D- D2- | D2 z2 z4 | x8 | %23
[M:2/4] x4 |[M:4/4] x [DG]- [DG]2- [DG]4 | B,4 x [DG]- [DG]2- | [DG]4 B,4 | %27
 x [B,G]- [B,G]2 [B,F]4 | x8 | x __B- B2- B4 | x8 | x8 |[K:bass] x8 | x7[K:treble] x | %34
[I:staff +1] !arpeggio![=B,,^G,]4 x4 | %35
 ^G,3[I:staff -1] !tenuto!=A, !tenuto!=B, !tenuto!^C2 !tenuto!B, | !tenuto!=B,4 !tenuto!=C4 | %37
 x2 A,2- A,4 | !>!!tenuto![A,DF]8 | z4 C4 | !>!!tenuto![DFA]8 | z2 D6 | %42
 !tenuto![DF]2 !>![_CE]4 !>!!tenuto!F2 | %43
 (3!>!!tenuto![B,D]!>!!tenuto![CE]!>!!tenuto![DF]!mf! !>![DF]4 (3:2:2(!>![CE]2 !>![B,D]) | %44
 !>!!tenuto![B,D]2 !>![B,E]4 C2 | x8 | x8 | !tenuto![DF]8 | %48
 (!>!!tenuto!F,2 !>!!tenuto!=A,2 !>!!tenuto!B,2 (3!>!!tenuto!_A,!>!!tenuto!G,!>!!tenuto!F,) | %49
 !>!F,4 (3z z[K:bass]!mf! (!>!!tenuto!A, (3:2:2!>!!tenuto!E,2 !>!!tenuto!D,) | x8 | x8 | x8 |] %53
V:4
 x8 | x8 | x8 | x8 | x8 | x8 | x8 | x8 | x8 | x8 | x8 | x8 | x8 | x8 | x8 | x8 | x8 | x8 | x8 | %19
 x8 | x8 | x8 | x8 |[M:2/4] x4 |[M:4/4] x8 | x8 | x8 | x8 | x8 | x8 | x8 | x8 |[K:bass] x8 | %33
 x7[K:treble] x | x8 | x8 | x8 | x8 | x8 | x8 | x8 | x8 | x8 | x8 | x8 | x8 | x8 | x8 | x8 | %49
 D4 x4/3[K:bass] x8/3 | x8 | x8 | x8 |] %53

